X:1
T:Title
%%score { ( 1 3 ) | ( 2 4 ) }
L:1/8
Q:1/4=112
M:6/4
K:F
V:1 treble nm="Grand Piano"
V:3 treble 
V:2 bass 
V:4 bass 
V:1
 A4 B2 A4 C2 | [EG]4 [EA]2 G4 F2 | A4 B2 c4 F2 | B4 A2 [EG]6 | A4 B2 A4 C2 | %5
w: Chas.~H.~Gabriel * * *|||||
 [B,EG]4 [CEA]2 [B,EG]4 [A,F]2 | [Fd]4 [Fd]2 c4 c2 | c4 =B2 c2- [Fc-]2 [Gc]2 | c4 d2 c4 A2 | %9
w: ||||
 B4 B2 A4 [C_EF]2 | [B,DF]4[K:bass] [F,B,D]2 [A,C]4[K:treble] [A,DF]2 | [CFA]4 [B,CG]2 [F,A,CF]6 |] %12
w: |||
V:2
 [F,CF]4 [F,DF]2 [F,CF]4 [F,A,]2 | [C,B,]4 [C,C]2 [F,B,C]4 [F,A,C]2 | %2
 [F,CF]4 [F,G,F]2 [F,A,F]4 [A,C]2 | [G,CE]4 [F,CF]2 [C,C]6 | [F,CF]4 [F,DF]2 [F,CF]4 [F,A,]2 | %5
 C,4 C,2 C,4 D,2 | [B,,B,]4 [D,B,]2[K:treble] [F,A,F]4 [F,A,F]2 | %7
 [G,E]4 [G,F]2[K:bass] G,2 A,2 B,2 | [F,A,F]4 [F,B,F]2 [F,A,F]4 [F,CF]2 | %9
 [F,DF]4 [F,DF]2 [F,CF]4 A,,2 | B,,4 D,2 F,4 D,2 | C,4 C,2 F,,6 |] %12
V:3
 x12 | x12 | x12 | x12 | x12 | x12 | x12 | z6 .E6 | x12 | x12 | x4[K:bass] x6[K:treble] x2 | x12 |] %12
V:4
 x12 | x12 | x12 | x12 | x12 | x12 | x6[K:treble] x6 | z6[K:bass] C,6 | x12 | x12 | x12 | x12 |] %12

